packages/core/src/svgs/tokens/mono/DEXE.svg

<svg width="24" height="24" viewBox="0 0 24 24" fill="none" xmlns="http://www.w3.org/2000/svg">
<path d="M15.04 5.26L12.38 7.90999C12.3302 7.96017 12.2711 8.00002 12.2059 8.02721C12.1406 8.05439 12.0706 8.06839 11.9999 8.06839C11.9294 8.06839 11.8594 8.05439 11.7941 8.02721C11.7289 8.00002 11.6698 7.96017 11.62 7.90999L8.96499 5.26L5.15999 4.5L10.72 10.045C11.42 10.755 12.675 10.65 13.385 9.94497L18.84 4.5L15.04 5.26ZM14.5 16.95V13.1899C14.5 12.905 14.865 12.505 15.16 12.505H18.84L22 10.5H14.2799C13.2999 10.5 12.5 11.455 12.5 12.45V19.5L14.5 16.945V16.95ZM8.85999 12.5H5.165L2 10.5H9.57998C10.56 10.5 11.5 11.315 11.5 12.3149V19.5L9.49998 16.9399V13.1899C9.49998 12.9 9.14998 12.5 8.85999 12.5Z" fill="white"/>
</svg>

<svg xmlns="http://www.w3.org/2000/svg" width="24" height="24" fill="none" viewBox="0 0 24 24">
    <path fill="#fff" d="m15.04 5.26-2.66 2.65a.536.536 0 0 1-.76 0L8.965 5.26 5.16 4.5l5.56 5.545c.7.71 1.955.605 2.665-.1L18.84 4.5zm-.54 11.69v-3.76c0-.285.365-.685.66-.685h3.68L22 10.5h-7.72c-.98 0-1.78.955-1.78 1.95v7.05l2-2.555zM8.86 12.5H5.165L2 10.5h7.58c.98 0 1.92.815 1.92 1.815V19.5l-2-2.56v-3.75c0-.29-.35-.69-.64-.69"/>
</svg>
